X: 605
T: Kitty Got a Clinking Coming From the Races   #2
R: reel
%S: s:2 b:12(6+6)
B: Francis O'Neill: "The Dance Music of Ireland" (1907) #605
Z: Frank Nordberg - http://www.musicaviva.com
F: http://www.musicaviva.com/abc/tunes/ireland/oneill-1001/0605/oneill-1001-0605-1.abc
M: 4/4
L: 1/8
K: D
"^A"[|] AG \
|: FDFA d2dc | BABc d2d2 |\
[1 FAAB d2dB | ABAF E2D2 :|\
[2 FAAd BcdB | AFDF E2D2 |]
"^B"\
|: FAAd BGGB | AFFA GEE2 |\
[1 FAAd BGGB | AFDF E2D2 :|\
[2 FAAd BcdB | AFDF E2D2 |]
